img/source-icon/microsoft-xbox.svg

<svg width="72" height="72" fill="none" xmlns="http://www.w3.org/2000/svg"><path d="M19.29 11.16c.21-.18.42-.36.57-.48C24.54 7.65 30 6 36 6c5.64 0 10.92 1.5 15.42 4.26.33.24 1.2.81 1.68 1.38C48.75 6.84 36 17.1 36 17.1c-4.5-3.39-8.49-5.7-11.52-6.6-2.55-.63-4.29 0-5.1.6m38.64 4.53c-.15-.15-.3-.3-.42-.45-1.08-1.2-2.46-1.5-3.6-1.41-1.17.36-6.3 2.19-12.6 8.16 0 0 7.11 6.9 11.46 13.95 4.35 7.05 6.93 12.6 5.34 20.31C63 50.85 66 43.77 66 36c0-7.86-3-15-7.98-20.37zM47.19 38.88c-1.95-2.16-4.8-5.25-8.61-9.03-.81-.81-1.68-1.65-2.58-2.55 0 0-1.41 1.38-3.21 3.21-2.31 2.31-5.28 5.34-6.96 7.11-2.94 3.15-11.4 13.05-11.88 18.6 0 0-1.95-4.38 2.25-14.55 2.7-6.63 10.8-16.59 14.25-19.83 0 0-3.09-3.42-6.99-5.79l-.15-.09c-1.89-1.11-3.93-1.98-5.91-2.1-2.01.15-3.27 1.62-3.27 1.62A29.862 29.862 0 0 0 6 36a30 30 0 0 0 30 30c8.79 0 16.71-3.78 22.2-9.81 0 0-.63-3.99-4.68-9.69-.93-1.29-4.41-5.43-6.33-7.62z" fill="#52525A"/></svg>

<svg width="72" height="72" viewBox="0 0 72 72" fill="none" xmlns="http://www.w3.org/2000/svg">
<path d="M19.29 11.16C19.5 10.98 19.71 10.8 19.86 10.68C24.54 7.65 30 6 36 6C41.64 6 46.92 7.5 51.42 10.26C51.75 10.5 52.62 11.07 53.1 11.64C48.75 6.84 36 17.1 36 17.1C31.5 13.71 27.51 11.4 24.48 10.5C21.93 9.87 20.19 10.5 19.38 11.1M58.02 15.63C57.87 15.48 57.72 15.33 57.6 15.18C56.52 13.98 55.14 13.68 54 13.77C52.83 14.13 47.7 15.96 41.4 21.93C41.4 21.93 48.51 28.83 52.86 35.88C57.21 42.93 59.79 48.48 58.2 56.19C63 50.85 66 43.77 66 36C66 28.14 63 21 58.02 15.63ZM47.19 38.88C45.24 36.72 42.39 33.63 38.58 29.85C37.77 29.04 36.9 28.2 36 27.3C36 27.3 34.59 28.68 32.79 30.51C30.48 32.82 27.51 35.85 25.83 37.62C22.89 40.77 14.43 50.67 13.95 56.22C13.95 56.22 12 51.84 16.2 41.67C18.9 35.04 27 25.08 30.45 21.84C30.45 21.84 27.36 18.42 23.46 16.05L23.31 15.96C21.42 14.85 19.38 13.98 17.4 13.86C15.39 14.01 14.13 15.48 14.13 15.48C8.89889 21.0307 5.99 28.3727 6.00003 36C6.00003 43.9565 9.16073 51.5871 14.7868 57.2132C17.5726 59.999 20.8798 62.2087 24.5195 63.7164C28.1593 65.224 32.0604 66 36 66C44.79 66 52.71 62.22 58.2 56.19C58.2 56.19 57.57 52.2 53.52 46.5C52.59 45.21 49.11 41.07 47.19 38.88Z" fill="#52525A"/>
</svg>
